!!!COM: Palestrina, Giovanni Perluigi da
!!!OPR: Missa In te Domine speravi (1599)
!!!OTL: Agnus II
**kern	**kern	**kern	**kern	**kern	**kern
*Ibass	*Itenor	*Itenor	*Icalto	*Icant	*Icant
!Bassus	!Tenor 2	!Tenor 1	!Altus	!Cantus 2	!Cantus 1
*clefF4	*clefGv2	*clefGv2	*clefG2	*clefG2	*clefG2
*k[]	*k[]	*k[]	*k[]	*k[]	*k[]
*C:ion	*C:ion	*C:ion	*C:ion	*C:ion	*C:ion
*M4/2	*M4/2	*M4/2	*M4/2	*M4/2	*M4/2
=1	=1	=1	=1	=1	=1
0r	1G	0r	0r	0r	0r
.	1G	.	.	.	.
=2	=2	=2	=2	=2	=2
0r	2A	0r	0r	0r	0r
.	2G	.	.	.	.
.	2c	.	.	.	.
.	2d	.	.	.	.
=3	=3	=3	=3	=3	=3
0r	1.e	0r	1c	1r	0r
.	.	.	1c	1g	.
.	4d	.	.	.	.
.	4c	.	.	.	.
=4	=4	=4	=4	=4	=4
0r	2B	0r	2d	1g	0r
.	2e	.	2c	.	.
.	2d	.	2f	2a	.
.	2e	.	2g	2g	.
=5	=5	=5	=5	=5	=5
0r	2.f	0r	1.a	2cc	0r
.	.	.	.	2dd	.
.	8e	.	.	.	.
.	8d	.	.	.	.
.	[1c	.	.	[1ee	.
.	.	.	4g	.	.
.	.	.	4f	.	.
=6	=6	=6	=6	=6	=6
0r	2c]	0r	2e	2ee]	0r
.	2d	.	2f	4dd	.
.	.	.	.	4cc	.
.	2.e	.	[1g	2b	.
.	.	.	.	2cc	.
.	8d	.	.	.	.
.	8c	.	.	.	.
=7	=7	=7	=7	=7	=7
0r	2B	0r	2g]	2dd	1g
.	2c	.	2e	1cc	.
.	1G	.	1d	.	1g
.	.	.	.	2b	.
=8	=8	=8	=8	=8	=8
0r	1c	0r	1e	1.cc	2a
.	.	.	.	.	2g
.	2A	.	1f	.	2cc
.	2B	.	.	4b	2dd
.	.	.	.	4a	.
=9	=9	=9	=9	=9	=9
0r	2.c	0r	2e	1g	1.ee
.	.	.	1g	.	.
.	4B	.	.	.	.
.	2c	.	.	1a	.
.	2d	.	2f#	.	4dd
.	.	.	.	.	4cc
=10	=10	=10	=10	=10	=10
0r	2e	1G	1g	1g	2b
.	4d	.	.	.	1cc
.	4c	.	.	.	.
.	1d	1G	2r	2r	.
.	.	.	2g	2dd	2b
=11	=11	=11	=11	=11	=11
0r	0r	2A	2e	2cc	2cc
.	.	2G	1g	2dd	2b
.	.	2c	.	2ee	1a
.	.	2d	2f#	2dd	.
=12	=12	=12	=12	=12	=12
1C	2r	1.e	1g	4cc	0g
.	.	.	.	4dd	.
.	1g	.	.	4ee	.
.	.	.	.	4ff	.
1C	.	.	1e	1gg	.
.	4f	4d	.	.	.
.	4e	4c	.	.	.
=13	=13	=13	=13	=13	=13
2D	2f	2B	2r	0r	0r
2C	2e	1c	2g	.	.
2F	1d	.	2a	.	.
2G	.	2B	4g	.	.
.	.	.	4f	.	.
=14	=14	=14	=14	=14	=14
1.A	2c	1c	1.e	0r	2r
.	4A	.	.	.	2cc
.	4B	.	.	.	.
.	4c	2r	.	.	2cc
.	4d	.	.	.	.
4G	4e	2e	[2g	.	2b
4F	4f	.	.	.	.
=15	=15	=15	=15	=15	=15
2E	2g	2e	2g]	0r	1cc
1F	2a	2c	2f	.	.
.	2f	2d	1r	.	2a
2E	2g	2e	.	.	2g
=16	=16	=16	=16	=16	=16
1F	1.a	2A	0r	1cc	4f
.	.	.	.	.	4g
.	.	1f	.	.	4a
.	.	.	.	.	4b
1A	.	.	.	1cc	2.cc
.	4g	4e	.	.	.
.	4f	4d	.	.	4dd
=17	=17	=17	=17	=17	=17
2A	2e	2c	1r	2cc	2ee
2F	2f	1d	.	2a	2dd
2G	1e	.	2r	2b-	1ee
2A	.	2c#	2a	4a	.
.	.	.	.	4g	.
=18	=18	=18	=18	=18	=18
2D	0d	1d	2a	2f	2r
2.B-	.	.	2f	2d	2dd
.	.	2r	2g	1dd	2b-
8A	.	.	.	.	.
8G	.	.	.	.	.
2F	.	2d	2a	.	2a
=19	=19	=19	=19	=19	=19
1.G	1r	1B-	2d	2dd	1g
.	.	.	1b-	2d	.
.	1d	2G	.	4d	[1dd
.	.	.	.	4e	.
4F	.	2A	4a	4f	.
4E	.	.	4g	4g	.
=20	=20	=20	=20	=20	=20
0D	1d	2A	2f	2a	2dd]
.	.	2B-	1g	2g	2dd
.	2d	1A	.	1a	1dd
.	2d	.	2f#	.	.
=21	=21	=21	=21	=21	=21
0G	2.d	1G	[0g	0b	1dd
.	4c	.	.	.	.
.	4B	2r	.	.	2r
.	4A	.	.	.	.
.	2B	2d	.	.	2dd
=22	=22	=22	=22	=22	=22
0r	2c	2e	1g]	1r	2cc
.	2G	1g	.	.	1b
.	1d	.	2r	2r	.
.	.	2f	2d	2dd	2a
=23	=23	=23	=23	=23	=23
1r	1r	1e	2e	2cc	1g
.	.	.	1g	1b	.
1D	2r	1d	.	.	1dd
.	2d	.	2f	2a	.
=24	=24	=24	=24	=24	=24
2E	2B	1r	1e	1g	1r
1G	1B	.	.	.	.
.	.	2r	1d	1dd	2r
2F	2A	2d	.	.	2dd
=25	=25	=25	=25	=25	=25
1E	1G	2e	1r	1r	2cc
.	.	1g	.	.	1b
1D	1d	.	2r	2r	.
.	.	2f	2d	2dd	2a
=26	=26	=26	=26	=26	=26
0r	1r	1e	2e	2cc	2.g
.	.	.	1g	1b	.
.	.	.	.	.	4a
.	2r	1d	.	.	4b
.	.	.	.	.	4cc
.	2d	.	2f	2a	[2dd
=27	=27	=27	=27	=27	=27
0r	2e	0r	1e	1g	2dd]
.	1g	.	.	.	2cc#
.	.	.	1d	1a	2dd
.	2f	.	.	.	2dd
=28	=28	=28	=28	=28	=28
0r	2e	0r	1g	2.b	2ee
.	2e	.	.	.	2gg
.	.	.	.	4cc	.
.	2d	.	1a	2dd	2ff
.	2c#	.	.	2a	[2ee
=29	=29	=29	=29	=29	=29
0r	2d	0r	2f	2r	4ee]
.	.	.	.	.	4dd
.	2B	.	2d	2g	1dd
.	1A	.	1e	2a	.
.	.	.	.	[2cc	2cc
=30	=30	=30	=30	=30	=30
2r	1G	2r	1g	2cc]	1dd
2G	.	2g	.	2b	.
2A	1r	2f	2r	1a	1r
[2c	.	[2e	2c	.	.
=31	=31	=31	=31	=31	=31
2c]	0r	2e]	2e	1g	2r
2B	.	2d	2g	.	2g
2A	.	1c	4f	1r	2a
.	.	.	4e	.	.
2A	.	.	4e	.	2cc
.	.	.	8d	.	.
.	.	.	8c	.	.
=32	=32	=32	=32	=32	=32
2G	0r	2g	1d	1r	2b
2F#	.	1d	.	.	2.a
2G	.	.	1r	2r	.
.	.	.	.	.	4g
2E	.	2G	.	2cc	[2g
=33	=33	=33	=33	=33	=33
1D	1r	1A	1r	2dd	2g]
.	.	.	.	1ff	2f
1C	2r	1c	2r	.	1g
.	2c	.	2cc	2ee	.
=34	=34	=34	=34	=34	=34
0r	2d	1r	2b-	1dd	2r
.	1f	.	1a	.	2f
.	.	2r	.	1cc	2a
.	2e	2c	2g	.	2cc
=35	=35	=35	=35	=35	=35
0r	1d	2d	2r	1r	2b-
.	.	1f	2f	.	1a
.	1c	.	2a	2r	.
.	.	2e	2cc	2cc	[2g
=36	=36	=36	=36	=36	=36
0r	2r	2d	2b-	2dd	2g]
.	2d	2d	2.a	2ff	2f
.	2e	2c	.	2ee	1g
.	.	.	4g	.	.
.	2g	2B	[2g	[2dd	.
=37	=37	=37	=37	=37	=37
1r	2e	2c	2g]	4dd]	1r
.	.	.	.	4cc	.
.	2c	2A	2f#	1cc	.
2r	1d	1G	1g	.	2r
2G	.	.	.	2b	2gg
=38	=38	=38	=38	=38	=38
2A	[0c	1c	2r	[0cc	2ff
2.c	.	.	2g	.	2.ee
.	.	1e	2a	.	.
4B	.	.	.	.	4dd
4A	.	.	[2cc	.	4cc
4G	.	.	.	.	4b
=39	=39	=39	=39	=39	=39
1.F	0c]	2f	4cc]	0cc]	2a
.	.	.	4b	.	.
.	.	1a	4a	.	4f
.	.	.	4g	.	4g
.	.	.	2f	.	4a
.	.	.	.	.	4b
2E	.	2g	2g	.	2cc
=40	=40	=40	=40	=40	=40
0F	[0c	0f	2a	[0cc	2.a
.	.	.	2f	.	.
.	.	.	.	.	4b
.	.	.	1a	.	2cc
.	.	.	.	.	2dd
=41	=41	=41	=41	=41	=41
0C	0c]	0e	0g	0cc]	0ee
==	==	==	==	==	==
*-	*-	*-	*-	*-	*-
!!!CDT: 1525/^1526/-1594/2/2
!!!OCY: Italia
!!!AGN: Mass (Parody)
!!!AST: renaissance, vocal
!!!ASW: Motet 1532 (Lupus Hellinck)
!!!PWK: Masses, Book 9
!!!RNB: Cadence finals: G,D
!!!YOR: Le Opere Complete, v. 25, p. 131
!!!YOO: Rome, Italy: Fratelli Scalera
!!!END: 1992//
!!!EED: John Miller
!!!YEC: Copyright 2000, John Miller
!!!YEN: United States of America
!!!YEM: Rights to all derivative electronic formats reserved.
!!!YEM: Refer to licensing agreement for further details.
!!!YEM: This file must be accompanied by the licensing agreement.
!!!YEM: A copy of the licensing agreement may be found at http://www.music-cog.ohio-state.edu/HumdrumDatabases/Palestrina/license.txt
!!!EMD: converted to Humdrum by Bret Aarden
